X:132
T:Barham Downs. WM.132
M:6/8
L:1/8
Q:3/8=120
S:Wm.Mittell’s MS, New Romney,Kent,1799
R:.Jig
O:England
A:Kent
Z:vmp.Chris Partington
K:D
a|a2fd2d|e2cA2A|ABc def|g2fe2a|!
a2fd2d|e2cA2A|Bgf edc|dAFD2:|!
|:e|a^gf edc|Bba ^gfe|aed cBA|e3E2e|!
a^gf edc|Bba ^gfe|aef dBe|A3A2:|

